; generated by PrusaSlicer 2.7.1+win64 on 2025-05-25 at 17:00:29 UTC

; 

; external perimeters extrusion width = 0.45mm
; perimeters extrusion width = 0.45mm
; infill extrusion width = 0.45mm
; solid infill extrusion width = 0.45mm
; top infill extrusion width = 0.40mm
; first layer extrusion width = 0.42mm

M201 X500 Y500 Z100 E5000 ; sets maximum accelerations, mm/sec^2
M203 X500 Y500 Z10 E60 ; sets maximum feedrates, mm / sec
M204 S500 T1000 ; sets acceleration (S) and retract acceleration (R), mm/sec^2
M205 X8.00 Y8.00 Z0.40 E5.00 ; sets the jerk limits, mm/sec
M205 S0 T0 ; sets the minimum extruding and travel feed rate, mm/sec
;TYPE:Custom
G90 ; use absolute coordinates
M83 ; extruder relative mode
M104 S210 ; set extruder temp
M140 S70 ; set bed temp
M190 S70 ; wait for bed temp
M109 S210 ; wait for extruder temp
G28 ; home all
G1 Z2 F240
G1 X2 Y10 F3000
G1 Z0.28 F240
G92 E0
G1 Y190 E15 F1500 ; intro line
G1 X2.3 F5000
G92 E0
G1 Y10 E15 F1200 ; intro line
G92 E0
G21 ; set units to millimeters
G90 ; use absolute coordinates
M83 ; use relative distances for extrusion
; Filament gcode
M107
;LAYER_CHANGE
;Z:0.3
;HEIGHT:0.3
;BEFORE_LAYER_CHANGE
G92 E0
;0.3


G1 E-5 F1800
G1 Z.05 F9000
;AFTER_LAYER_CHANGE
;0.3
G1 X98.226 Y106.113
G1 Z.05
G1 E5 F2400
;TYPE:Skirt/Brim
;WIDTH:0.42
G1 F1800
G1 X98.828 Y105.664 E.03331
G1 X99.57 Y105.356 E.03563
G1 X100.4 Y105.245 E.03714
G1 X130.637 Y105.245 E1.34116
G1 X131.203 Y105.303 E.02524
G1 X131.762 Y105.467 E.02584
G1 X132.322 Y105.756 E.02795
G1 X132.725 Y106.068 E.02261
G1 X133.128 Y106.511 E.02656
G1 X133.431 Y107.007 E.02578
G1 X133.644 Y107.57 E.0267
G1 X133.746 Y108.165 E.02678
G1 X133.738 Y122.926 E.65472
G1 X133.557 Y123.699 E.03521
G1 X133.233 Y124.338 E.03178
G1 X132.716 Y124.941 E.03523
G1 X132.133 Y125.358 E.03179
G1 X131.401 Y125.652 E.03499
G1 X130.651 Y125.755 E.03358
G1 X100.293 Y125.753 E1.34652
G1 X99.5 Y125.624 E.03564
G1 X98.788 Y125.312 E.03448
G1 X98.205 Y124.866 E.03256
G1 X97.666 Y124.175 E.03887
G1 X97.369 Y123.476 E.03369
G1 X97.246 Y122.682 E.03564
G1 X97.254 Y108.16 E.64412
G1 X97.419 Y107.367 E.03593
G1 X97.756 Y106.678 E.03402
G1 X98.188 Y106.159 E.02995
G1 E-3.5
;WIPE_START
G1 F7200
G1 X98.226 Y106.113 E-.01417
G1 X98.828 Y105.664 E-.17836
G1 X99.57 Y105.356 E-.1908
G1 X100.4 Y105.245 E-.19888
G1 X104.264 Y105.245 E-.91779
;WIPE_END
G1 X100.54 Y108.539 F9000
G1 E5 F2400
;TYPE:Perimeter
;WIDTH:0.42
G1 F1800
G1 X130.459 Y108.54 E1.32705
G1 X130.461 Y113.335 E.21268
G1 X128.063 Y113.335 E.10636
G1 X127.626 Y113.379 E.01948
G1 X127.284 Y113.498 E.01606
G1 X126.799 Y113.856 E.02674
G1 X126.665 Y114.016 E.00926
G1 X126.415 Y114.488 E.02369
G1 X126.335 Y114.949 E.02075
G1 X126.334 Y116.002 E.04671
G1 X126.411 Y116.48 E.02147
G1 X126.634 Y116.946 E.02291
G1 X126.982 Y117.313 E.02243
G1 X127.482 Y117.577 E.02508
G1 X127.997 Y117.666 E.02318
G1 X130.461 Y117.666 E.10929
G1 X130.461 Y120.063 E.10632
G1 X130.46 Y122.461 E.10636
G1 X100.539 Y122.461 E1.32714
G1 X100.539 Y117.666 E.21268
G1 X102.937 Y117.666 E.10636
G1 X103.385 Y117.619 E.01998
G1 X103.874 Y117.411 E.02357
G1 X104.267 Y117.075 E.02293
G1 X104.532 Y116.643 E.02248
G1 X104.657 Y116.095 E.02493
G1 X104.665 Y115.507 E.02608
G1 X104.656 Y114.857 E.02883
G1 X104.548 Y114.404 E.02066
G1 X104.279 Y113.933 E.02406
G1 X103.856 Y113.579 E.02447
G1 X103.486 Y113.409 E.01806
G1 X103.051 Y113.335 E.01957
G1 X100.539 Y113.335 E.11142
G1 X100.54 Y108.599 E.21006
G1 X100.185 Y108.405 F9000
;TYPE:External perimeter
G1 F1800
G1 X100.278 Y108.238 E.00848
G1 X100.424 Y108.184 E.0069
G1 X130.564 Y108.184 E1.33685
G1 X130.745 Y108.245 E.00847
G1 X130.815 Y108.391 E.00718
G1 X130.816 Y113.69 E.23504
G1 X128.063 Y113.691 E.12211
G1 X127.68 Y113.73 E.01708
G1 X127.413 Y113.83 E.01265
G1 X127.021 Y114.133 E.02198
G1 X126.764 Y114.574 E.02264
G1 X126.691 Y114.949 E.01695
G1 X126.69 Y116.002 E.04671
G1 X126.761 Y116.418 E.01872
G1 X126.946 Y116.775 E.01783
G1 X127.228 Y117.056 E.01766
G1 X127.632 Y117.255 E.01998
G1 X127.997 Y117.31 E.01637
G1 X130.816 Y117.31 E.12504
G1 X130.816 Y120.063 E.12211
G1 X130.816 Y122.588 E.112
G1 X130.729 Y122.753 E.00827
G1 X130.576 Y122.816 E.00734
G1 X100.43 Y122.816 E1.33712
G1 X100.245 Y122.729 E.00907
G1 X100.184 Y122.575 E.00735
G1 X100.184 Y117.31 E.23353
G1 X102.937 Y117.31 E.12211
G1 X103.316 Y117.27 E.0169
G1 X103.724 Y117.089 E.0198
G1 X104.021 Y116.818 E.01783
G1 X104.22 Y116.472 E.0177
G1 X104.31 Y116.002 E.02123
G1 X104.309 Y114.949 E.04671
G1 X104.255 Y114.629 E.01439
G1 X104.023 Y114.187 E.02214
G1 X103.634 Y113.857 E.02263
G1 X103.358 Y113.74 E.0133
G1 X103.051 Y113.691 E.01379
G1 X100.184 Y113.69 E.12717
G1 X100.185 Y108.465 E.23175
G1 E-3.5
;WIPE_START
G1 F7200
G1 X100.185 Y108.405 E-.01425
G1 X100.278 Y108.238 E-.0454
G1 X100.424 Y108.184 E-.03697
G1 X106.333 Y108.184 E-1.40338
;WIPE_END
G1 X129.63 Y108.646 F9000
G1 E5 F2400
;TYPE:Solid infill
;WIDTH:0.421927
G1 F1800
G1 X130.193 Y109.209 E.03551
G1 X130.193 Y109.715 E.02257
G1 X129.284 Y108.806 E.05733
G1 X128.778 Y108.806 E.02257
G1 X130.193 Y110.221 E.08924
G1 X130.193 Y110.727 E.02257
G1 X128.273 Y108.806 E.12112
G1 X127.767 Y108.806 E.02257
G1 X130.193 Y111.233 E.15303
G1 X130.193 Y111.738 E.02252
G1 X127.261 Y108.806 E.18491
G1 X126.756 Y108.806 E.02252
G1 X130.194 Y112.244 E.21682
G1 X130.194 Y112.75 E.02257
G1 X126.25 Y108.806 E.24874
G1 X125.744 Y108.806 E.02257
G1 X130.007 Y113.069 E.26885
G1 X129.503 Y113.071 E.02248
G1 X125.239 Y108.806 E.26895
G1 X124.733 Y108.806 E.02257
G1 X129 Y113.073 E.26911
G1 X128.496 Y113.075 E.02248
G1 X124.227 Y108.806 E.26923
G1 X123.722 Y108.806 E.02252
G1 X127.992 Y113.076 E.2693
G1 X127.832 Y113.077 E.00714
G1 X127.544 Y113.134 E.01309
G1 X123.216 Y108.806 E.27295
G1 X122.711 Y108.806 E.02252
G1 X127.165 Y113.261 E.28093
G1 X126.981 Y113.368 E.00949
G1 X126.865 Y113.466 E.00677
G1 X122.205 Y108.806 E.29389
G1 X121.699 Y108.806 E.02257
G1 X126.591 Y113.698 E.30852
G1 X126.514 Y113.763 E.00449
G1 X126.384 Y113.997 E.01194
G1 X121.194 Y108.806 E.32735
G1 X120.688 Y108.806 E.02257
G1 X126.204 Y114.323 E.34791
G1 X126.162 Y114.4 E.00391
G1 X126.105 Y114.729 E.01489
G1 X120.182 Y108.806 E.37355
G1 X119.677 Y108.806 E.02252
G1 X126.068 Y115.198 E.40309
G1 X126.068 Y115.703 E.02252
G1 X119.171 Y108.806 E.43497
G1 X118.665 Y108.806 E.02257
G1 X126.306 Y116.446 E.48186
G1 E-3.5
;WIPE_START
G1 F7200
G1 X121.84 Y111.98 E-1.5
;WIPE_END
G1 X129.654 Y117.772 F9000
G1 E5 F2400
G1 F1800
G1 X130.194 Y118.312 E.03406
G1 X130.194 Y118.818 E.02257
G1 X129.308 Y117.932 E.05588
G1 X128.803 Y117.932 E.02252
G1 X130.194 Y119.323 E.08773
G1 X130.194 Y119.829 E.02257
G1 X128.297 Y117.932 E.11964
G1 X127.992 Y117.932 E.0136
G1 X127.765 Y117.906 E.01019
G1 X130.194 Y120.335 E.15319
G1 X130.194 Y120.84 E.02252
G1 X118.16 Y108.806 E.75895
G1 X117.654 Y108.806 E.02257
G1 X130.194 Y121.346 E.79086
G1 X130.194 Y121.851 E.02252
G1 X117.148 Y108.806 E.82274
G1 X116.643 Y108.806 E.02252
G1 X130.031 Y122.194 E.84434
G1 X129.525 Y122.194 E.02257
G1 X116.137 Y108.806 E.84434
G1 X115.631 Y108.806 E.02257
G1 X129.019 Y122.194 E.84434
G1 X128.514 Y122.194 E.02252
G1 X115.126 Y108.806 E.84434
G1 X114.62 Y108.806 E.02257
G1 X128.008 Y122.194 E.84434
G1 X127.502 Y122.194 E.02257
G1 X114.114 Y108.806 E.84434
G1 X113.609 Y108.806 E.02252
G1 X126.997 Y122.194 E.84434
G1 X126.491 Y122.194 E.02257
G1 X113.103 Y108.806 E.84434
G1 X112.597 Y108.806 E.02257
G1 X125.985 Y122.194 E.84434
G1 X125.48 Y122.194 E.02252
G1 X112.092 Y108.806 E.84434
G1 X111.586 Y108.806 E.02257
G1 X124.974 Y122.194 E.84434
G1 X124.469 Y122.194 E.02252
G1 X111.081 Y108.806 E.84434
G1 X110.575 Y108.806 E.02257
G1 X123.963 Y122.194 E.84434
G1 X123.457 Y122.194 E.02257
G1 X110.069 Y108.806 E.84434
G1 X109.564 Y108.806 E.02252
G1 X122.952 Y122.194 E.84434
G1 X122.446 Y122.194 E.02257
G1 X109.058 Y108.806 E.84434
G1 X108.552 Y108.806 E.02257
G1 X121.94 Y122.194 E.84434
G1 X121.435 Y122.194 E.02252
G1 X108.047 Y108.806 E.84434
G1 X107.541 Y108.806 E.02257
G1 X120.929 Y122.194 E.84434
G1 X120.423 Y122.194 E.02257
G1 X107.035 Y108.806 E.84434
G1 X106.53 Y108.806 E.02252
G1 X119.918 Y122.194 E.84434
G1 X119.412 Y122.194 E.02257
G1 X106.024 Y108.806 E.84434
G1 X105.518 Y108.806 E.02257
G1 X118.906 Y122.194 E.84434
G1 X118.401 Y122.194 E.02252
G1 X105.013 Y108.806 E.84434
G1 X104.507 Y108.806 E.02257
G1 X117.895 Y122.194 E.84434
G1 X117.389 Y122.194 E.02257
G1 X104.001 Y108.806 E.84434
G1 X103.496 Y108.806 E.02252
G1 X116.884 Y122.194 E.84434
G1 X116.378 Y122.194 E.02257
G1 X102.99 Y108.806 E.84434
G1 X102.484 Y108.806 E.02257
G1 X115.873 Y122.194 E.84437
G1 X115.367 Y122.194 E.02257
G1 X101.979 Y108.806 E.84434
G1 X101.473 Y108.806 E.02257
G1 X114.861 Y122.194 E.84434
G1 X114.356 Y122.194 E.02252
G1 X100.967 Y108.806 E.84437
G1 X100.807 Y108.806 E.00714
G1 X100.807 Y109.151 E.01539
G1 X113.85 Y122.194 E.82258
G1 X113.344 Y122.194 E.02257
G1 X100.807 Y109.657 E.79067
G1 X100.807 Y110.162 E.02252
G1 X112.839 Y122.194 E.75882
G1 X112.333 Y122.194 E.02257
G1 X104.9 Y114.762 E.46875
G1 X104.931 Y114.941 E.0081
G1 X104.928 Y115.295 E.01579
G1 X111.827 Y122.194 E.4351
G1 X111.322 Y122.194 E.02252
G1 X104.924 Y115.797 E.40347
G1 X104.921 Y116.135 E.01507
G1 X104.895 Y116.273 E.00626
G1 X110.816 Y122.194 E.37342
G1 X110.31 Y122.194 E.02257
G1 X104.801 Y116.685 E.34744
G1 X104.624 Y117.013 E.01662
G1 X109.805 Y122.194 E.32675
G1 X109.299 Y122.194 E.02257
G1 X104.407 Y117.302 E.30852
G1 X104.146 Y117.546 E.01593
G1 X108.794 Y122.194 E.29314
G1 X108.288 Y122.194 E.02257
G1 X103.823 Y117.729 E.28159
G1 X103.625 Y117.822 E.00976
G1 X103.461 Y117.873 E.00766
G1 X107.782 Y122.194 E.27251
G1 X107.277 Y122.194 E.02252
G1 X103.014 Y117.932 E.26882
G1 X102.509 Y117.932 E.02252
G1 X106.771 Y122.194 E.26879
G1 X106.265 Y122.194 E.02257
G1 X102.004 Y117.932 E.26876
G1 X101.498 Y117.932 E.02257
G1 X105.76 Y122.194 E.26879
G1 X105.254 Y122.194 E.02257
G1 X100.992 Y117.932 E.26879
G1 X100.806 Y117.932 E.00829
G1 X100.806 Y118.252 E.01427
G1 X104.748 Y122.194 E.24861
G1 X104.243 Y122.194 E.02252
G1 X100.806 Y118.757 E.21676
G1 X100.806 Y119.263 E.02257
G1 X103.737 Y122.194 E.18485
G1 X103.231 Y122.194 E.02257
G1 X100.806 Y119.769 E.15294
G1 X100.806 Y120.274 E.02252
G1 X102.726 Y122.194 E.12109
G1 X102.22 Y122.194 E.02257
G1 X100.806 Y120.78 E.08918
G1 X100.806 Y121.286 E.02257
G1 X101.714 Y122.194 E.05726
G1 X101.209 Y122.194 E.02252
G1 X100.646 Y121.631 E.03551
G1 E-3.5
;WIPE_START
G1 F7200
G1 X101.209 Y122.194 E-.1891
G1 X101.714 Y122.194 E-.11994
G1 X100.806 Y121.286 E-.30498
G1 X100.806 Y120.78 E-.12018
G1 X102.22 Y122.194 E-.47493
G1 X102.726 Y122.194 E-.12018
G1 X102.218 Y121.686 E-.17069
;WIPE_END
G1 X103.431 Y113.292 F9000
G1 E5 F2400
G1 F1800
G1 X100.807 Y110.668 E.16549
G1 X100.806 Y111.173 E.02252
G1 X102.709 Y113.075 E.11998
G1 X102.201 Y113.073 E.02265
G1 X100.806 Y111.679 E.08795
G1 X100.806 Y112.184 E.02252
G1 X101.694 Y113.072 E.056
G1 X101.186 Y113.07 E.02265
G1 X100.646 Y112.53 E.03406
;LAYER_CHANGE
;Z:0.5
;HEIGHT:0.2
;BEFORE_LAYER_CHANGE
G92 E0
;0.5


G1 E-3.5 F1800
;WIPE_START
G1 F7200
G1 X101.186 Y113.07 E-.18137
G1 X101.694 Y113.072 E-.12065
G1 X100.806 Y112.184 E-.29826
G1 X100.806 Y111.679 E-.11994
G1 X102.201 Y113.073 E-.46838
G1 X102.709 Y113.075 E-.12065
G1 X102.141 Y112.507 E-.19075
;WIPE_END
G1 Z.25 F9000
;AFTER_LAYER_CHANGE
;0.5
G1 X97.251 Y112.504
G1 E5 F2400
;TYPE:Skirt/Brim
;WIDTH:0.42
G1 F3600
G1 X97.254 Y108.16 E.1362
G1 X97.419 Y107.367 E.0254
G1 X97.756 Y106.678 E.02405
G1 X98.226 Y106.113 E.02304
G1 X98.828 Y105.664 E.02355
G1 X99.57 Y105.356 E.02519
G1 X100.4 Y105.245 E.02626
G1 X130.637 Y105.245 E.94806
G1 X131.203 Y105.303 E.01784
G1 X131.762 Y105.467 E.01827
G1 X132.322 Y105.756 E.01976
G1 X132.725 Y106.068 E.01598
G1 X133.128 Y106.511 E.01878
G1 X133.431 Y107.007 E.01822
G1 X133.644 Y107.57 E.01887
G1 X133.746 Y108.165 E.01893
G1 X133.738 Y122.926 E.46282
G1 X133.557 Y123.699 E.02489
G1 X133.233 Y124.338 E.02246
G1 X132.716 Y124.941 E.0249
G1 X132.133 Y125.358 E.02247
G1 X131.401 Y125.652 E.02473
G1 X130.651 Y125.755 E.02374
G1 X100.293 Y125.753 E.95185
G1 X99.5 Y125.624 E.02519
G1 X98.788 Y125.312 E.02437
G1 X98.205 Y124.866 E.02302
G1 X97.666 Y124.175 E.02748
G1 X97.369 Y123.476 E.02381
G1 X97.246 Y122.682 E.02519
G1 X97.251 Y112.564 E.31724
G1 E-3.5 F1800
;WIPE_START
G1 F7200
G1 X97.251 Y112.504 E-.01425
G1 X97.254 Y108.16 E-1.0317
G1 X97.419 Y107.367 E-.19237
G1 X97.756 Y106.678 E-.18216
G1 X97.97 Y106.421 E-.07952
;WIPE_END
G1 X104.466 Y116.691 F9000
G1 E5 F2400
;TYPE:Perimeter
;WIDTH:0.449999
G1 F3000
G1 X104.512 Y116.614 E.00304
G1 X104.631 Y116.045 E.01968
G1 X104.631 Y115.5 E.01845
G1 X104.622 Y114.848 E.02207
G1 X104.51 Y114.399 E.01566
G1 X104.25 Y113.95 E.01756
G1 X103.804 Y113.59 E.0194
G1 X103.577 Y113.481 E.00852
G1 X103.045 Y113.369 E.0184
G1 X100.232 Y113.368 E.09522
G1 X100.234 Y108.452 E.1664
G1 X100.301 Y108.29 E.00593
G1 X100.434 Y108.232 E.00491
G1 X130.53 Y108.233 E1.01871
G1 X130.685 Y108.27 E.00539
G1 X130.763 Y108.401 E.00516
G1 X130.767 Y113.368 E.16813
G1 X128.198 Y113.369 E.08696
G1 X127.81 Y113.386 E.01315
G1 X127.308 Y113.522 E.0176
G1 X126.886 Y113.817 E.01743
G1 X126.718 Y114.005 E.00853
G1 X126.45 Y114.49 E.01876
G1 X126.369 Y114.955 E.01598
G1 X126.369 Y116.046 E.03693
G1 X126.441 Y116.468 E.01449
G1 X126.689 Y116.963 E.01874
G1 X127.048 Y117.32 E.01714
G1 X127.545 Y117.562 E.01871
G1 X127.999 Y117.632 E.01555
G1 X130.767 Y117.632 E.09369
G1 X130.766 Y120.201 E.08696
G1 X130.765 Y122.552 E.07958
G1 X130.701 Y122.71 E.00577
G1 X130.559 Y122.768 E.00519
G1 X100.461 Y122.768 E1.01878
G1 X100.319 Y122.739 E.00491
G1 X100.232 Y122.562 E.00668
G1 X100.232 Y117.632 E.16687
G1 X103.001 Y117.632 E.09373
G1 X103.443 Y117.566 E.01513
G1 X103.903 Y117.353 E.01716
G1 X104.249 Y117.051 E.01555
G1 X104.435 Y116.742 E.01221
G1 X104.118 Y116.497 F9000
;TYPE:External perimeter
G1 F3000
G1 X104.224 Y116.045 E.01571
G1 X104.224 Y114.955 E.0369
G1 X104.175 Y114.658 E.01019
G1 X103.961 Y114.245 E.01574
G1 X103.556 Y113.913 E.01773
G1 X103.045 Y113.776 E.01791
G1 X99.825 Y113.775 E.10899
G1 X99.827 Y108.469 E.1796
G1 X99.862 Y108.21 E.00885
G1 X100.024 Y107.974 E.00969
G1 X100.163 Y107.903 E.00528
G1 X100.412 Y107.825 E.00883
G1 X130.53 Y107.826 E1.01946
G1 X130.823 Y107.874 E.01005
G1 X131.051 Y108.066 E.01009
G1 X131.17 Y108.344 E.01024
G1 X131.175 Y113.775 E.18383
G1 X127.955 Y113.776 E.10899
G1 X127.52 Y113.876 E.01511
G1 X127.126 Y114.146 E.01617
G1 X126.849 Y114.591 E.01774
G1 X126.776 Y114.955 E.01257
G1 X126.776 Y116.046 E.03693
G1 X126.84 Y116.388 E.01178
G1 X127.042 Y116.759 E.0143
G1 X127.316 Y117.014 E.01267
G1 X127.701 Y117.185 E.01426
G1 X127.999 Y117.225 E.01018
G1 X131.175 Y117.225 E.1075
G1 X131.173 Y120.201 E.10073
G1 X131.172 Y122.542 E.07924
G1 X131.141 Y122.785 E.00829
G1 X130.984 Y123.019 E.00954
G1 X130.843 Y123.097 E.00545
G1 X130.585 Y123.175 E.00912
G1 X100.461 Y123.175 E1.01966
G1 X100.246 Y123.151 E.00732
G1 X100.044 Y123.039 E.00782
G1 X99.896 Y122.83 E.00867
G1 X99.825 Y122.586 E.0086
G1 X99.825 Y117.225 E.18146
G1 X102.8 Y117.225 E.1007
G1 X103.244 Y117.2 E.01505
G1 X103.584 Y117.075 E.01226
G1 X103.914 Y116.812 E.01428
G1 X104.085 Y116.548 E.01065
G1 E-3.5 F1800
;WIPE_START
G1 F7200
G1 X104.118 Y116.497 E-.01443
G1 X104.224 Y116.045 E-.11026
G1 X104.224 Y114.955 E-.25888
G1 X104.175 Y114.658 E-.07149
G1 X103.961 Y114.245 E-.11047
G1 X103.556 Y113.913 E-.12438
G1 X103.045 Y113.776 E-.12565
G1 X100.163 Y113.775 E-.68444
;WIPE_END
G1 X100.654 Y108.571 F9000
G1 E5 F2400
;TYPE:Solid infill
;WIDTH:0.548956
G1 F3000
G1 X100.61 Y108.526 E.00265
G1 X100.549 Y108.542 E.00265
G1 X100.532 Y108.603 E.00266
G1 X100.577 Y108.648 E.00268
G1 X100.638 Y108.632 E.00265
;WIDTH:0.449999
G1 X101.288 Y108.538 E.02223
G1 X100.476 Y109.356 E.03901
;WIDTH:0.41646
G1 X100.41 Y109.428 E.00303
;WIDTH:0.38292
G1 X100.339 Y109.409 E.00208
G1 X100.358 Y109.481 E.00211
G1 X100.399 Y109.47 E.0012
;WIDTH:0.449999
G1 X100.542 Y109.86 E.01406
G1 X101.864 Y108.538 E.06328
G1 X102.44 Y108.538 E.0195
