; generated by PrusaSlicer 2.7.1+win64 on 2025-05-25 at 20:57:53 UTC

; 

; external perimeters extrusion width = 0.45mm
; perimeters extrusion width = 0.45mm
; infill extrusion width = 0.45mm
; solid infill extrusion width = 0.45mm
; top infill extrusion width = 0.40mm
; first layer extrusion width = 0.42mm

M201 X500 Y500 Z100 E5000 ; sets maximum accelerations, mm/sec^2
M203 X500 Y500 Z10 E60 ; sets maximum feedrates, mm / sec
M204 S500 T1000 ; sets acceleration (S) and retract acceleration (R), mm/sec^2
M205 X8.00 Y8.00 Z0.40 E5.00 ; sets the jerk limits, mm/sec
M205 S0 T0 ; sets the minimum extruding and travel feed rate, mm/sec
;TYPE:Custom
G90 ; use absolute coordinates
M83 ; extruder relative mode
M104 S210 ; set extruder temp
M140 S70 ; set bed temp
M190 S70 ; wait for bed temp
M109 S210 ; wait for extruder temp
G28 ; home all
G1 Z2 F240
G1 X2 Y10 F3000
G1 Z0.28 F240
G92 E0
G1 Y190 E15 F1500 ; intro line
G1 X2.3 F5000
G92 E0
G1 Y10 E15 F1200 ; intro line
G92 E0
G21 ; set units to millimeters
G90 ; use absolute coordinates
M83 ; use relative distances for extrusion
; Filament gcode
M107
;LAYER_CHANGE
;Z:0.3
;HEIGHT:0.3
;BEFORE_LAYER_CHANGE
G92 E0
;0.3


G1 E-5 F1800
G1 Z.05 F9000
;AFTER_LAYER_CHANGE
;0.3
G1 X98.254 Y106.087
G1 Z.05
G1 E5 F2400
;TYPE:Skirt/Brim
;WIDTH:0.42
G1 F1800
G1 X98.835 Y105.66 E.03198
G1 X99.593 Y105.35 E.03632
G1 X100.356 Y105.245 E.03416
G1 X130.638 Y105.245 E1.34315
G1 X131.202 Y105.303 E.02515
G1 X131.762 Y105.467 E.02588
G1 X132.322 Y105.756 E.02795
G1 X133.128 Y106.512 E.04902
G1 X133.431 Y107.007 E.02574
G1 X133.644 Y107.571 E.02674
G1 X133.746 Y108.166 E.02678
G1 X133.738 Y122.93 E.65485
G1 X133.57 Y123.665 E.03344
G1 X133.244 Y124.322 E.03253
G1 X132.788 Y124.873 E.03172
G1 X132.172 Y125.335 E.03415
G1 X131.398 Y125.653 E.03712
G1 X130.6 Y125.755 E.03568
G1 X100.293 Y125.753 E1.34426
G1 X99.506 Y125.626 E.03536
G1 X98.801 Y125.32 E.03409
G1 X98.19 Y124.852 E.03414
G1 X97.666 Y124.175 E.03797
G1 X97.369 Y123.477 E.03365
G1 X97.246 Y122.686 E.03551
G1 X97.254 Y108.166 E.64403
G1 X97.396 Y107.436 E.03299
G1 X97.751 Y106.686 E.0368
G1 X98.215 Y106.133 E.03202
G1 E-3.5
;WIPE_START
G1 F7200
G1 X98.254 Y106.087 E-.01432
G1 X98.835 Y105.66 E-.17125
G1 X99.593 Y105.35 E-.1945
G1 X100.356 Y105.245 E-.18292
G1 X104.301 Y105.245 E-.93701
;WIPE_END
G1 X100.539 Y108.539 F9000
G1 E5 F2400
;TYPE:Perimeter
;WIDTH:0.42
G1 F1800
G1 X130.461 Y108.54 E1.32718
G1 X130.461 Y122.461 E.61746
G1 X100.539 Y122.461 E1.32718
G1 X100.539 Y108.599 E.61485
G1 X100.184 Y108.43 F9000
;TYPE:External perimeter
G1 F1800
G1 X100.271 Y108.245 E.00907
G1 X100.425 Y108.184 E.00735
G1 X130.548 Y108.184 E1.3361
G1 X130.635 Y108.193 E.00388
G1 X130.768 Y108.278 E.007
G1 X130.816 Y108.452 E.00801
G1 X130.816 Y122.536 E.62469
G1 X130.807 Y122.608 E.00322
G1 X130.728 Y122.751 E.00725
G1 X130.576 Y122.816 E.00733
G1 X100.43 Y122.816 E1.33712
G1 X100.245 Y122.729 E.00907
G1 X100.184 Y122.575 E.00735
G1 X100.184 Y108.49 E.62474
G1 E-3.5
;WIPE_START
G1 F7200
G1 X100.184 Y108.43 E-.01425
G1 X100.271 Y108.245 E-.04855
G1 X100.425 Y108.184 E-.03934
G1 X106.311 Y108.184 E-1.39786
;WIPE_END
G1 X129.631 Y108.646 F9000
G1 E5 F2400
;TYPE:Solid infill
;WIDTH:0.42194
G1 F1800
G1 X130.194 Y109.209 E.03551
G1 X130.194 Y109.715 E.02257
G1 X129.285 Y108.806 E.05733
G1 X128.78 Y108.806 E.02252
G1 X130.194 Y110.221 E.08921
G1 X130.194 Y110.726 E.02252
G1 X128.274 Y108.806 E.12109
G1 X127.768 Y108.806 E.02257
G1 X130.194 Y111.232 E.15301
G1 X130.194 Y111.738 E.02257
G1 X127.263 Y108.806 E.18489
G1 X126.757 Y108.806 E.02257
G1 X130.194 Y112.243 E.21677
G1 X130.194 Y112.749 E.02257
G1 X126.251 Y108.806 E.24868
G1 X125.746 Y108.806 E.02252
G1 X130.194 Y113.255 E.28056
G1 X130.194 Y113.76 E.02252
G1 X125.24 Y108.806 E.31245
G1 X124.734 Y108.806 E.02257
G1 X130.194 Y114.266 E.34436
G1 X130.194 Y114.772 E.02257
G1 X124.229 Y108.806 E.37624
G1 X123.723 Y108.806 E.02257
G1 X130.194 Y115.277 E.40812
G1 X130.194 Y115.783 E.02257
G1 X123.217 Y108.806 E.44003
G1 X122.712 Y108.806 E.02252
G1 X130.194 Y116.289 E.47192
G1 X130.194 Y116.794 E.02252
G1 X122.206 Y108.806 E.5038
G1 X121.7 Y108.806 E.02257
G1 X130.194 Y117.3 E.53571
G1 X130.194 Y117.806 E.02257
G1 X121.195 Y108.806 E.56759
G1 X120.689 Y108.806 E.02257
G1 X130.194 Y118.311 E.59947
G1 X130.194 Y118.817 E.02257
G1 X120.183 Y108.806 E.63139
G1 X119.678 Y108.806 E.02252
G1 X130.194 Y119.323 E.66327
G1 X130.194 Y119.828 E.02252
G1 X119.172 Y108.806 E.69515
G1 X118.666 Y108.806 E.02257
G1 X130.194 Y120.334 E.72706
G1 X130.194 Y120.84 E.02257
G1 X118.161 Y108.806 E.75894
G1 X117.655 Y108.806 E.02257
G1 X130.194 Y121.345 E.79083
G1 X130.194 Y121.851 E.02257
G1 X117.149 Y108.806 E.82274
G1 X116.644 Y108.806 E.02252
G1 X130.032 Y122.194 E.84437
G1 X129.526 Y122.194 E.02257
G1 X116.138 Y108.806 E.84437
G1 X115.632 Y108.806 E.02257
G1 X129.02 Y122.194 E.84437
G1 X128.515 Y122.194 E.02252
G1 X115.127 Y108.806 E.84437
G1 X114.621 Y108.806 E.02257
G1 X128.009 Y122.194 E.84437
G1 X127.503 Y122.194 E.02257
G1 X114.115 Y108.806 E.84437
G1 X113.61 Y108.806 E.02252
G1 X126.998 Y122.194 E.84437
G1 X126.492 Y122.194 E.02257
G1 X113.104 Y108.806 E.84437
G1 X112.598 Y108.806 E.02257
G1 X125.986 Y122.194 E.84437
G1 X125.481 Y122.194 E.02252
G1 X112.093 Y108.806 E.84437
G1 X111.587 Y108.806 E.02257
G1 X124.975 Y122.194 E.84437
G1 X124.469 Y122.194 E.02257
G1 X111.081 Y108.806 E.84437
G1 X110.576 Y108.806 E.02252
G1 X123.964 Y122.194 E.84437
G1 X123.458 Y122.194 E.02257
G1 X110.07 Y108.806 E.84437
G1 X109.564 Y108.806 E.02257
G1 X122.952 Y122.194 E.84437
G1 X122.447 Y122.194 E.02252
G1 X109.059 Y108.806 E.84437
G1 X108.553 Y108.806 E.02257
G1 X121.941 Y122.194 E.84437
G1 X121.435 Y122.194 E.02257
G1 X108.047 Y108.806 E.84437
G1 X107.542 Y108.806 E.02252
G1 X120.93 Y122.194 E.84437
G1 X120.424 Y122.194 E.02257
G1 X107.036 Y108.806 E.84437
G1 X106.53 Y108.806 E.02257
G1 X119.918 Y122.194 E.84437
G1 X119.413 Y122.194 E.02252
G1 X106.025 Y108.806 E.84437
G1 X105.519 Y108.806 E.02257
G1 X118.907 Y122.194 E.84437
G1 X118.401 Y122.194 E.02257
G1 X105.013 Y108.806 E.84437
G1 X104.508 Y108.806 E.02252
G1 X117.896 Y122.194 E.84437
G1 X117.39 Y122.194 E.02257
G1 X104.002 Y108.806 E.84437
G1 X103.496 Y108.806 E.02257
G1 X116.884 Y122.194 E.84437
G1 X116.379 Y122.194 E.02252
G1 X102.991 Y108.806 E.84437
G1 X102.485 Y108.806 E.02257
G1 X115.873 Y122.194 E.84437
G1 X115.367 Y122.194 E.02257
G1 X101.979 Y108.806 E.84437
G1 X101.474 Y108.806 E.02252
G1 X114.862 Y122.194 E.84437
G1 X114.356 Y122.194 E.02257
G1 X100.968 Y108.806 E.84437
G1 X100.806 Y108.806 E.00722
G1 X100.806 Y109.15 E.01534
G1 X113.85 Y122.194 E.82268
G1 X113.345 Y122.194 E.02252
G1 X100.806 Y109.655 E.79083
G1 X100.806 Y110.161 E.02257
G1 X112.839 Y122.194 E.75891
G1 X112.333 Y122.194 E.02257
G1 X100.806 Y110.667 E.727
G1 X100.806 Y111.172 E.02252
G1 X111.828 Y122.194 E.69515
G1 X111.322 Y122.194 E.02257
G1 X100.806 Y111.678 E.66324
G1 X100.806 Y112.184 E.02257
G1 X110.816 Y122.194 E.63132
G1 X110.311 Y122.194 E.02252
G1 X100.806 Y112.689 E.59947
G1 X100.806 Y113.195 E.02257
G1 X109.805 Y122.194 E.56756
G1 X109.299 Y122.194 E.02257
G1 X100.806 Y113.701 E.53565
G1 X100.806 Y114.206 E.02252
G1 X108.794 Y122.194 E.5038
G1 X108.288 Y122.194 E.02257
G1 X100.806 Y114.712 E.47188
G1 X100.806 Y115.218 E.02257
G1 X107.782 Y122.194 E.43997
G1 X107.277 Y122.194 E.02252
G1 X100.806 Y115.723 E.40812
G1 X100.806 Y116.229 E.02257
G1 X106.771 Y122.194 E.37621
G1 X106.265 Y122.194 E.02257
G1 X100.806 Y116.735 E.3443
G1 X100.806 Y117.24 E.02252
G1 X105.76 Y122.194 E.31245
G1 X105.254 Y122.194 E.02257
G1 X100.806 Y117.746 E.28053
G1 X100.806 Y118.252 E.02257
G1 X104.748 Y122.194 E.24862
G1 X104.243 Y122.194 E.02252
G1 X100.806 Y118.757 E.21677
G1 X100.806 Y119.263 E.02257
G1 X103.737 Y122.194 E.18486
G1 X103.231 Y122.194 E.02257
G1 X100.806 Y119.769 E.15294
G1 X100.806 Y120.274 E.02252
G1 X102.726 Y122.194 E.12109
G1 X102.22 Y122.194 E.02257
G1 X100.806 Y120.78 E.08918
G1 X100.806 Y121.286 E.02257
G1 X101.714 Y122.194 E.05727
G1 X101.209 Y122.194 E.02252
G1 X100.646 Y121.631 E.03551
;LAYER_CHANGE
;Z:0.5
;HEIGHT:0.2
;BEFORE_LAYER_CHANGE
G92 E0
;0.5


G1 E-3.5 F1800
;WIPE_START
G1 F7200
G1 X101.209 Y122.194 E-.1891
G1 X101.714 Y122.194 E-.11994
G1 X100.806 Y121.286 E-.30498
G1 X100.806 Y120.78 E-.12018
G1 X102.22 Y122.194 E-.47493
G1 X102.726 Y122.194 E-.12018
G1 X102.218 Y121.686 E-.17069
;WIPE_END
G1 Z.25 F9000
;AFTER_LAYER_CHANGE
;0.5
G1 X102.218 Y125.753
G1 E5 F2400
;TYPE:Skirt/Brim
;WIDTH:0.42
G1 F3600
G1 X100.293 Y125.753 E.06036
G1 X99.506 Y125.626 E.025
G1 X98.801 Y125.32 E.0241
G1 X98.19 Y124.852 E.02413
G1 X97.666 Y124.175 E.02684
G1 X97.369 Y123.477 E.02378
G1 X97.246 Y122.686 E.0251
G1 X97.254 Y108.166 E.45526
G1 X97.396 Y107.436 E.02332
G1 X97.751 Y106.686 E.02602
G1 X98.254 Y106.087 E.02452
G1 X98.835 Y105.66 E.02261
G1 X99.593 Y105.35 E.02568
G1 X100.356 Y105.245 E.02415
G1 X130.638 Y105.245 E.94947
G1 X131.202 Y105.303 E.01778
G1 X131.762 Y105.467 E.0183
G1 X132.322 Y105.756 E.01976
G1 X133.128 Y106.512 E.03465
G1 X133.431 Y107.007 E.0182
G1 X133.644 Y107.571 E.0189
G1 X133.746 Y108.166 E.01893
G1 X133.738 Y122.93 E.46291
G1 X133.57 Y123.665 E.02364
G1 X133.244 Y124.322 E.023
G1 X132.788 Y124.873 E.02243
G1 X132.172 Y125.335 E.02414
G1 X131.398 Y125.653 E.02624
G1 X130.6 Y125.755 E.02522
G1 X102.278 Y125.753 E.88802
G1 E-3.5 F1800
;WIPE_START
G1 F7200
G1 X102.218 Y125.753 E-.01425
G1 X100.293 Y125.753 E-.45719
G1 X99.506 Y125.626 E-.18933
G1 X98.801 Y125.32 E-.18253
G1 X98.19 Y124.852 E-.18279
G1 X97.666 Y124.175 E-.20332
G1 X97.369 Y123.477 E-.18016
G1 X97.31 Y123.101 E-.09043
;WIPE_END
G1 X100.273 Y122.646 F9000
G1 E5 F2400
;TYPE:Perimeter
;WIDTH:0.449999
G1 F3000
G1 X100.232 Y122.562 E.00316
G1 X100.232 Y108.462 E.47727
G1 X100.261 Y108.319 E.00494
G1 X100.438 Y108.232 E.00668
G1 X130.516 Y108.233 E1.0181
G1 X130.704 Y108.284 E.00659
G1 X130.768 Y108.484 E.00711
G1 X130.767 Y122.502 E.47449
G1 X130.726 Y122.699 E.00681
G1 X130.531 Y122.768 E.007
G1 X100.462 Y122.768 E1.0178
G1 X100.319 Y122.739 E.00494
G1 X100.3 Y122.7 E.00147
G1 X99.896 Y122.83 F9000
;TYPE:External perimeter
G1 F3000
G1 X99.825 Y122.586 E.0086
G1 X99.825 Y108.462 E.47808
G1 X99.849 Y108.246 E.00736
G1 X99.961 Y108.044 E.00782
G1 X100.17 Y107.896 E.00867
G1 X100.413 Y107.825 E.00857
G1 X130.516 Y107.826 E1.01895
G1 X130.822 Y107.874 E.01048
G1 X130.996 Y107.989 E.00706
G1 X131.129 Y108.187 E.00807
G1 X131.175 Y108.484 E.01017
G1 X131.174 Y122.608 E.47808
G1 X131.084 Y122.907 E.01057
G1 X130.851 Y123.113 E.01053
G1 X130.576 Y123.175 E.00954
G1 X100.462 Y123.175 E1.01932
G1 X100.246 Y123.151 E.00736
G1 X100.044 Y123.039 E.00782
G1 X99.931 Y122.879 E.00663
G1 E-3.5 F1800
;WIPE_START
G1 F7200
G1 X99.896 Y122.83 E-.0143
G1 X99.825 Y122.586 E-.06035
G1 X99.825 Y116.584 E-1.42535
;WIPE_END
G1 X100.65 Y108.58 F9000
G1 E5 F2400
;TYPE:Solid infill
;WIDTH:0.548878
G1 F3000
G1 X100.605 Y108.535 E.00268
G1 X100.544 Y108.551 E.00265
G1 X100.528 Y108.612 E.00265
G1 X100.572 Y108.657 E.00265
G1 X100.634 Y108.641 E.00269
;WIDTH:0.449999
G1 X100.54 Y109.291 E.02223
G1 X101.285 Y108.546 E.03566
G1 X101.861 Y108.545 E.0195
G1 X100.54 Y109.866 E.06324
G1 X100.54 Y110.441 E.01946
G1 X102.438 Y108.544 E.09083
G1 X103.014 Y108.543 E.0195
G1 X100.541 Y111.017 E.1184
G1 X100.541 Y111.592 E.01946
G1 X103.591 Y108.543 E.14598
G1 X104.167 Y108.542 E.0195
G1 X100.541 Y112.168 E.17357
G1 X100.542 Y112.743 E.01946
G1 X104.743 Y108.541 E.20112
G1 X105.32 Y108.54 E.01953
G1 X100.542 Y113.318 E.22872
G1 X100.542 Y113.894 E.0195
G1 X105.896 Y108.54 E.25629
G1 X106.473 Y108.539 E.01953
G1 X100.542 Y114.469 E.28389
G1 X100.543 Y115.045 E.0195
G1 X107.049 Y108.538 E.31146
G1 X107.625 Y108.538 E.0195
G1 X100.543 Y115.62 E.33901
G1 X100.543 Y116.195 E.01946
G1 X108.201 Y108.538 E.36656
G1 X108.776 Y108.538 E.01946
G1 X100.544 Y116.771 E.39408
G1 X100.544 Y117.346 E.01946
G1 X109.352 Y108.538 E.42163
G1 X109.928 Y108.538 E.0195
G1 X100.544 Y117.922 E.44921
G1 X100.545 Y118.497 E.01946
G1 X110.503 Y108.538 E.47671
G1 X111.079 Y108.539 E.0195
G1 X100.545 Y119.072 E.50423
G1 X100.545 Y119.648 E.0195
G1 X111.654 Y108.539 E.53178
G1 X112.23 Y108.539 E.0195
G1 X100.545 Y120.223 E.55933
G1 X100.546 Y120.799 E.0195
G1 X112.805 Y108.539 E.58685
G1 X113.381 Y108.539 E.0195
G1 X100.546 Y121.374 E.6144
G1 X100.546 Y121.949 E.01946
G1 X113.957 Y108.539 E.64195
G1 X114.532 Y108.539 E.01946
G1 X100.611 Y122.461 E.66641
G1 X100.502 Y122.444 E.00373
;WIDTH:0.41646
G1 X100.394 Y122.427 E.0034
;WIDTH:0.38292
G1 X100.405 Y122.603 E.00499
;WIDTH:0.449999
G1 X101.187 Y122.46 E.02691
G1 X115.108 Y108.539 E.66639
G1 X115.683 Y108.54 E.01946
G1 X101.763 Y122.46 E.66634
G1 X102.338 Y122.46 E.01946
G1 X116.259 Y108.54 E.66637
G1 X116.834 Y108.54 E.01946
G1 X102.914 Y122.46 E.66634
G1 X103.49 Y122.46 E.0195
G1 X117.41 Y108.54 E.66634
G1 X117.985 Y108.54 E.01946
G1 X104.066 Y122.459 E.66629
G1 X104.642 Y122.459 E.0195
G1 X118.561 Y108.54 E.66629
G1 X119.137 Y108.54 E.0195
G1 X105.218 Y122.459 E.66629
G1 X105.794 Y122.459 E.0195
G1 X119.712 Y108.541 E.66625
G1 X120.288 Y108.541 E.0195
G1 X106.37 Y122.459 E.66625
G1 X106.946 Y122.458 E.0195
G1 X120.863 Y108.541 E.6662
G1 X121.439 Y108.541 E.0195
G1 X107.522 Y122.458 E.6662
G1 X108.097 Y122.458 E.01946
G1 X122.014 Y108.541 E.6662
G1 X122.59 Y108.541 E.0195
G1 X108.673 Y122.458 E.6662
G1 X109.249 Y122.458 E.0195
G1 X123.166 Y108.541 E.6662
G1 X123.741 Y108.541 E.01946
G1 X109.825 Y122.457 E.66615
G1 X110.401 Y122.457 E.0195
G1 X124.317 Y108.542 E.66613
G1 X124.892 Y108.542 E.01946
G1 X110.977 Y122.457 E.6661
G1 X111.553 Y122.457 E.0195
G1 X125.468 Y108.542 E.6661
G1 X126.043 Y108.542 E.01946
G1 X112.129 Y122.457 E.66608
G1 X112.705 Y122.456 E.0195
G1 X126.619 Y108.542 E.66605
G1 X127.194 Y108.542 E.01946
G1 X113.281 Y122.456 E.66603
G1 X113.856 Y122.456 E.01946
G1 X127.77 Y108.542 E.66605
G1 X128.346 Y108.543 E.0195
G1 X114.432 Y122.456 E.66603
G1 X115.008 Y122.456 E.0195
G1 X128.921 Y108.543 E.66601
G1 X129.497 Y108.543 E.0195
G1 X115.584 Y122.455 E.66598
G1 X116.16 Y122.455 E.0195
G1 X130.072 Y108.543 E.66596
G1 X130.592 Y108.436 E.01797
;WIDTH:0.38292
G1 X130.521 Y108.417 E.00208
G1 X130.54 Y108.488 E.00208
G1 X130.581 Y108.477 E.0012
;WIDTH:0.41646
G1 X130.518 Y108.607 E.00449
;WIDTH:0.449999
G1 X130.455 Y108.736 E.00486
G1 X116.736 Y122.455 E.65672
G1 X117.312 Y122.455 E.0195
G1 X130.455 Y109.311 E.62917
G1 X130.456 Y109.887 E.0195
G1 X117.888 Y122.455 E.60162
G1 X118.464 Y122.454 E.0195
G1 X130.456 Y110.462 E.57405
G1 X130.456 Y111.038 E.0195
G1 X119.04 Y122.454 E.54648
G1 X119.615 Y122.454 E.01946
G1 X130.457 Y111.613 E.51898
G1 X130.457 Y112.188 E.01946
G1 X120.191 Y122.454 E.49143
G1 X120.767 Y122.454 E.0195
G1 X130.457 Y112.764 E.46385
G1 X130.457 Y113.339 E.01946
G1 X121.343 Y122.453 E.43628
G1 X121.919 Y122.453 E.0195
G1 X130.458 Y113.915 E.40873
G1 X130.458 Y114.49 E.01946
G1 X122.495 Y122.453 E.38118
G1 X123.071 Y122.453 E.0195
G1 X130.458 Y115.065 E.35364
G1 X130.459 Y115.641 E.0195
G1 X123.647 Y122.453 E.32609
G1 X124.223 Y122.452 E.0195
G1 X130.459 Y116.216 E.29851
G1 X130.459 Y116.792 E.0195
G1 X124.799 Y122.452 E.27094
G1 X125.374 Y122.452 E.01946
G1 X130.459 Y117.367 E.24342
G1 X130.46 Y117.942 E.01946
G1 X125.95 Y122.452 E.21589
G1 X126.526 Y122.452 E.0195
G1 X130.46 Y118.518 E.18832
G1 X130.46 Y119.093 E.01946
G1 X127.102 Y122.451 E.16075
G1 X127.678 Y122.451 E.0195
G1 X130.461 Y119.669 E.1332
G1 X130.461 Y120.244 E.01946
G1 X128.254 Y122.451 E.10565
G1 X128.83 Y122.451 E.0195
G1 X130.461 Y120.819 E.0781
G1 X130.461 Y121.395 E.0195
G1 X129.406 Y122.451 E.05053
G1 X129.982 Y122.45 E.0195
G1 X130.462 Y121.97 E.02298
G1 X130.564 Y121.907 E.00406
;WIDTH:0.41646
G1 X130.665 Y121.844 E.0037
;WIDTH:0.38292
G1 X130.624 Y121.855 E.0012
G1 X130.605 Y121.784 E.00208
G1 X130.676 Y121.803 E.00208
;LAYER_CHANGE
;Z:0.7
;HEIGHT:0.2
;BEFORE_LAYER_CHANGE
G92 E0
;0.7


G1 E-3.5 F1800
;WIPE_START
G1 F7200
G1 X130.605 Y121.784 E-.01746
G1 X130.624 Y121.855 E-.01746
G1 X130.665 Y121.844 E-.01008
;WIPE_END
